-----BEGIN PGP PUBLIC KEY BLOCK-----

mQINBGj6j3MBEADZKkfaQGC8Wr/BR6iVGlvm0fa8ji3FOQoL6++cz05KE2vzp+QN
PwDUCOUy0tXHm15KrHAcxgHSho7cxLrKyJVRi/OYVSUs7jxpMtQtGcjzrjkbPlg9
HJpijJ+ZT6SQUwU9n4vxdUyxsLy0MkVokm/OSD4/CCyYz4oEG4jP4ObNATD+sMkL
nYx4lE0ktHLyQZBUqnrAuxNkj1GOrksrysfdoCerj9Fj5gZFDWFnehvvkZaQpuqb
4DhA8Nx9U7xPu2tUSOfMPZ9251HYsDcWmeZk9fb4KBIEpeyMqPTOUQhpnGH0zADL
HyMGwd8VOX6uqDommDZevifXFEuijSD1BcD+WfmpLSbs3eHZK9lOS+P0Dis1S1qY
Ru5g7yGcUCk6V9/JC/BrhnA7HBQgZHb9i3rfN6ZxPCv3yBh93JTdAatbWwBeYiz0
Z4eVwBefFPHuJ8rXCYyEOzr12sdxs7xpJlflGUTtAew69WqxFt1PjchtgFGjivSq
kaRcm7H+CVqPvtv2i2iamrQ7QjgpVKoQX8m4KNbXEPKm+F+dkGkEC/aDKgb1XD6Z
BFknaIO6ct50M+AG79XZRtOBnlj9/94S+PoDmk7YhMzcQ4Ms/N8vv0reiHbEn+D0
hfxGc/APdMZVLMbtIWIT2Q30RwirWVtljmcj6cbk65k9MZQK/Y2wiXezsQARAQAB
tGRCdW5kbGVDcmFmdCBSZWxlYXNlIFNpZ25pbmcgS2V5IChWZXJpZmllZCBrZXkg
Zm9yIGJ1bmRsZWNyYWZ0LWlvIHJlbGVhc2VzKSA8cmVsZWFzZXNAYnVuZGxlY3Jh
ZnQuaW8+iQJXBBMBCgBBFiEEcC2Qo+adKlWPJhCj90KTNbZfSKMFAmj6j3MCGwMF
CQWjmoAFCwkIBwICIgIGFQoJCAsCBBYCAwECHgcCF4AACgkQ90KTNbZfSKO2bg//
Ts00t61NbewuEtO0MnOxpfQ+kqcFm5uCz7coV8UeiU/QESKJ2/lDH2nItR6JiQ4Y
kx6bhohUEOhnz+rpcBST2o7ftfRXgSWtz3a1TTNH/PRDGoIvsUd8RvvikaxnX9ca
IxmfV7ZC7ZdIf6eoTbfq3C0BtNg8+Vii6ZbFSXZUw9xr/Yw6HYqsxubDGMhWVv1F
yANcInz6JhT14IsNTfNR07zgeGE6Cn8pQswLz9tJUJUIKbIsLOsQt3vYIkK+XCF0
uUD7ZQS4wy+eQtUAkxiDhrOV/wxB8GxnPSwiw4DdLXu/+PYvUarwRgJwNijdkUNI
3GiwdCP+3FsGvG/cwVuVUGShKx/CAHsgQNYpES2WGrytiq3pa8MVw4sQUFy39ZWY
dTColrP5d+RBErkGEfuffY1fjCmBnRGyn1QLM/KpPD7LIKFvJrjZ7w1qHNhs8fsg
tQA9LDqgVz1hwrr9GYIRdixpGvjRFG4yLcQnsvmwjnK0jDlBkpoukizq0sbKaxCs
FsNBHKXGt7WPaxTuoM6XD82+1CUnEm1Cw4bz94BosuWNMzWFYZmrxGRz6nRy7sMS
Q6EPSIjuSqKaSI4hcuRBtGt6eJFXG7M30A476JjAveS/5fOFTGlSHho3WmvHe3Eq
wUD1YR9wt05aO67gtft3+rVM8DmkH22CjpFT3fUY4la5Ag0EaPqPcwEQAKRZt+XR
CBcWsNZHMOk51A9BHMSmKx/aDgM97bFYjN7I7sI81Wf7+F9kcDLkVGax9fdH2MbV
uzjuUtZt7/d9mBRE5K20nj9GxfoOzQwhMVGjW4nE36jURC5GgltfebDSQ7J+Fwsz
4piGlE617jsRISSgS6GvCZuL/Kxt1OTD2afde4xZqVuWyRO5XpgNeYI/PI9fGxyG
AIzGAH6nhpqte7AqEDUfltM354Bhmk7w/la8QhLCY03iM0E+dFgWnPVAW80rU1T/
MT4/itwwRsM+zTfjy0vJXcdMK/xRKY+vC/7dRKJVVsyhlYyXGZt2LecR0c0LSxSZ
qRDGU+eDJO65uPPVBiCWaNEkaVmud3/jw6PGpl2UUKn+tvv4uJhQtk5Fc49mzIn5
UGphwTVKsK68IUWcdE+x5Ozk1fVFqm23dKUdwfov/MWJyB8bpNIUmITRt88XmgQj
fr4aUzMyosiPkGg41OZgsg7KpNqTB5SdiuBBcJumy9dP6TG5OCA8XW2YE9Ib0pd6
rsmhFuBu+7/8jallcZpIMc685TEv1eDdnH8JZmwBZBc6MjhUeLBt3R7vI6IwUtjg
WXZFvOPNRep0lA/Hidtn6J5IDN1LxhusURmiFhfKaIC77U/Mc8oPYK/99TilSGFm
V5axcso/2aqrkaBxX8iwxDopfioaju5e823LABEBAAGJAjwEGAEKACYWIQRwLZCj
5p0qVY8mEKP3QpM1tl9IowUCaPqPcwIbDAUJBaOagAAKCRD3QpM1tl9Io/OzD/9W
IOGguNZJMGgabAm7o7B8PWpgGqLV+7KBmLn6k2Uimf35kI6+HKmxnvYTAsAwICIu
JzT+TZVWX3XdRC4cXNzNZVfsfllXokPDwU4FABM6VYufC6bsGn3elcJxOlt3tM6C
oT7Y59KG8dMzAp/fotoJosVX46WHFrG6mRkguhATvWwHE8eTLtw4xgi3N6ykoc4W
b4wMYSMi+qxnqxtIVBIkgEcbAwi64R7/L2s3isZKE2+ANH0RQoD0IpAxvvQMDxrA
5sRkjU60RNhX8d95B2G/YYQsc4Bxqvlz5ElR7lHR40nkGuBIZEstph+S1++0fVqZ
mHWKVLaSiA7yYthAHczHF4ZDQdht1xRjJBVTv7gYLmVYxiO9nRBaxPMm2M1a53N0
h/EsPr/XqQmAYbuxipNBw1B53DcCRIYz38XtmKYZUsn+8pkS9wIE6DLkOF3sT4XV
6y3oXWX6UUGxw8gHGZi7ubBPCR1mKQDOyJOncYaoDlaDcOCR5A1qqnEVJecw76sr
il5Y8jHC7UhlAOEdMMtMzAOSwDvxvs36I7UkeATCkEPfFHtGHwIZ3C9R8zeuQ7+v
TpgHtEQ5wXgJztDEapsgt3srFtb0y2j25Bo6QjZVlEfiMQotj0xQaakcpQE/8HM2
ZsklkunXS8BWxHfrWjdlVRbO1KlApyNshWP51PRwAQ==
=qEKX
-----END PGP PUBLIC KEY BLOCK-----
